public/images/icon_code.svg

<svg fill="none" height="24" viewBox="0 0 24 24" width="24" xmlns="http://www.w3.org/2000/svg"><path d="m16.4463 16.4465-.3535.3535.7071.7071.3536-.3535zm5.1536-4.4465.3536.3536.3535-.3536-.3535-.3535zm-4.4464-5.15353-.3536-.35355-.7071.7071.3535.35356zm-10.30715 10.30713.35355.3535.70711-.7071-.35355-.3535zm-4.44645-5.1536-.35355-.3535-.35355.3535.35355.3536zm5.15356-4.44642.35355-.35356-.70711-.7071-.35355.35355zm9.60004 9.60002 4.8-4.8-.7072-.7071-4.8 4.8zm4.8-5.5071-4.8-4.80003-.7072.70711 4.8 4.80002zm-14.40004 4.8-4.8-4.8-.70711.7071 4.8 4.8zm-4.8-4.0929 4.8-4.80002-.70711-.70711-4.8 4.80003zm10.35324-10.03578-3.2 19.19998.9864.1644 3.2-19.19998z" fill="#686868"/></svg>

<svg width="24" height="24" viewBox="0 0 24 24" fill="none" xmlns="http://www.w3.org/2000/svg">
<path d="M16.4463 16.4465L16.0928 16.8L16.7999 17.5071L17.1535 17.1536L16.4463 16.4465ZM21.5999 12L21.9535 12.3536L22.307 12L21.9535 11.6465L21.5999 12ZM17.1535 6.84647L16.7999 6.49292L16.0928 7.20002L16.4463 7.55358L17.1535 6.84647ZM6.84635 17.1536L7.1999 17.5071L7.90701 16.8L7.55346 16.4465L6.84635 17.1536ZM2.3999 12L2.04635 11.6465L1.6928 12L2.04635 12.3536L2.3999 12ZM7.55346 7.55358L7.90701 7.20002L7.1999 6.49292L6.84635 6.84647L7.55346 7.55358ZM17.1535 17.1536L21.9535 12.3536L21.2463 11.6465L16.4463 16.4465L17.1535 17.1536ZM21.9535 11.6465L17.1535 6.84647L16.4463 7.55358L21.2463 12.3536L21.9535 11.6465ZM7.55346 16.4465L2.75346 11.6465L2.04635 12.3536L6.84635 17.1536L7.55346 16.4465ZM2.75346 12.3536L7.55346 7.55358L6.84635 6.84647L2.04635 11.6465L2.75346 12.3536ZM13.1067 2.31782L9.9067 21.5178L10.8931 21.6822L14.0931 2.48222L13.1067 2.31782Z" fill="#686868"/>
</svg>
